images/oracle.svg

<svg width="109" height="15" viewBox="0 0 109 15" fill="none" xmlns="http://www.w3.org/2000/svg">
<path fill-rule="evenodd" clip-rule="evenodd" d="M47.0246 9.2711H54.1313L50.3734 3.28146L43.4763 14.1109H40.3376L48.7265 1.10233C49.0912 0.576854 49.6991 0.259277 50.3734 0.259277C51.0255 0.259277 51.6334 0.565824 51.9871 1.08048L60.4093 14.1109H57.2705L55.7895 11.691H48.5942L47.0246 9.2711ZM79.6301 11.6908V0.390595H76.9664V12.7969C76.9664 13.1363 77.099 13.4649 77.3532 13.7168C77.6073 13.9686 77.95 14.1109 78.3258 14.1109H90.4728L92.0424 11.691H79.6299L79.6301 11.6908ZM40.2491 5.03334C40.2491 7.5956 38.1491 9.66505 35.5626 9.66505L35.5628 9.66547H34.3469L39.6964 14.1111H35.8279L27.8767 7.24556L35.3859 7.25638C36.6238 7.25638 37.6185 6.25994 37.6185 5.03375C37.6185 3.80736 36.6238 2.81072 35.3859 2.81072H26.5724V14.1111H23.9096V0.390387H35.5626C38.1491 0.390387 40.2491 2.47087 40.2491 5.03334ZM7.51863 14.1109C3.69544 14.1111 0.592773 11.045 0.592773 7.25638C0.592773 3.46751 3.69544 0.390803 7.51863 0.390803H15.5683C19.3924 0.390803 22.4927 3.46751 22.4927 7.25638C22.4927 11.045 19.3924 14.1109 15.5681 14.1109H7.51863ZM19.8724 7.25617C19.8724 9.70896 17.8662 11.691 15.3894 11.691H15.3891H7.69655C5.22072 11.691 3.21355 9.70896 3.21355 7.25638C3.21355 4.80358 5.22072 2.81072 7.69676 2.81072H15.3894C17.8662 2.81072 19.8724 4.80358 19.8724 7.25617ZM65.9689 14.1109C62.1449 14.1109 59.0388 11.045 59.0388 7.25638C59.0388 3.46751 62.1449 0.390803 65.9689 0.390803H75.5298L73.9711 2.81072H66.1458C63.6699 2.81072 61.6583 4.80358 61.6583 7.25638C61.6583 9.70896 63.6699 11.691 66.1458 11.691H75.7506L74.181 14.1109H65.9689ZM94.2311 8.46071C94.7615 10.3333 96.4968 11.691 98.5416 11.691H108.146L106.577 14.1107H98.3645C94.5403 14.1107 91.4345 11.0448 91.4345 7.25596C91.4345 3.4673 94.5403 0.390387 98.3645 0.390387H107.936L106.356 2.81072H98.5416C96.4968 2.81072 94.7615 4.17925 94.2311 6.0408H107.185L105.615 8.46071H94.2311Z" fill="#36536B"/>
</svg>

<svg width="109" height="15" fill="none" xmlns="http://www.w3.org/2000/svg"><path fill-rule="evenodd" clip-rule="evenodd" d="M47.025 9.271h7.106l-3.758-5.99-6.897 10.83h-3.138l8.389-13.009A1.988 1.988 0 0 1 50.373.26c.653 0 1.26.307 1.614.821l8.422 13.03H57.27l-1.48-2.419h-7.196l-1.57-2.42Zm32.605 2.42V.39h-2.664v12.406c0 .34.133.668.387.92s.597.394.973.394h12.147l1.57-2.42H79.63ZM40.25 5.033c0 2.563-2.1 4.632-4.687 4.632h-1.216l5.35 4.446h-3.87l-7.95-6.865 7.509.01a2.225 2.225 0 0 0 2.232-2.222 2.226 2.226 0 0 0-2.232-2.223h-8.814v11.3H23.91V.391h11.653c2.586 0 4.686 2.08 4.686 4.642ZM7.518 14.111c-3.824 0-6.926-3.066-6.926-6.855C.593 3.468 3.695.391 7.519.391h8.05c3.823 0 6.924 3.077 6.924 6.865 0 3.789-3.1 6.855-6.925 6.855h-8.05Zm12.353-6.855c0 2.453-2.006 4.435-4.483 4.435H7.697c-2.476 0-4.483-1.982-4.483-4.435 0-2.452 2.007-4.445 4.483-4.445h7.692c2.477 0 4.483 1.993 4.483 4.445Zm46.097 6.855c-3.824 0-6.93-3.066-6.93-6.855 0-3.788 3.106-6.865 6.93-6.865h9.56l-1.558 2.42h-7.825c-2.476 0-4.488 1.993-4.488 4.445 0 2.453 2.012 4.435 4.488 4.435h9.605l-1.57 2.42h-8.212ZM94.23 8.46a4.47 4.47 0 0 0 4.31 3.23h9.605l-1.569 2.42h-8.212c-3.825 0-6.93-3.066-6.93-6.855 0-3.789 3.105-6.866 6.93-6.866h9.571l-1.58 2.42h-7.814a4.482 4.482 0 0 0-4.31 3.23h12.953l-1.57 2.42H94.231Z" fill="#36536B"/></svg>
